X:10150059
T:Larid\'e a8 K1  Em
G:Kazimodal
R:Larid\'e
C:Traditionnel, arrangement http://kazimodal.trad.org
P:A4
M:12/8
K:Am
P:A
M:12/8
Q:3/8=140
|: "Em"E2 E A2 B "Am"c2 B A3| "F"A2 A B2 A "D"A2 G "Em"E3 :|
|: "Am"E2 E ""A2 B "F"c2 A ""d2 c |1"G" B3 ""ABc "D"A2 ""G ""A3 :|2"G" B3 ""ABc "F"A2 ""G "Am"A3 ||

